X: 1
T: Old Yeller Dog Come Trottin' Through the Meetinghouse
R: reel
S: Milford Contra Dance collection
Z: 2022 by John Chambers <jc:trillian.mit.edu>
M: C|
L: 1/8
K: G
|:\
"G"G,2B,D G2G2 | B4 BAG2 | "D"A3G A2DE | "G"G2G2 GEDB, ||
"G"G,2B,D G2G2 | B4 BAG2 | "D"A2GA BGA2 |1 "G"G4 G4 :|2 "G"G4 G2 ||
|: d2 |\
"G"g4 e4 | d6 B2- | B2B2 BAG2 | "C"Ee d2 ||
"G"g4 e4 | d3G e2d2- | "D"d2e2 dBA2 |1 "G"G4 G2 :|2 "G"G4 G4 |]
%%center Possible fiddle cross tuning: GDGD
